X: 1
T: Stream, The
C: Hans Jørgen "mckenna" Jensen
M: 4/4
L: 1/8
R: reel
K: Emin
E3F GE~E2|BEdE BGFE|D3E FD~D2|
dDBD ADFD|E3F GE~E2|BEdE BGFE|
D2FA d3B|1AFDF E3D:|2ABdf e3d||
e2ge Bege|bege agfe|d3e f3g|
a2~a2 bagf|e2ge Bege|bege agfe|
